src/assets/svg/error.svg

<?xml version="1.0" encoding="UTF-8"?>
<svg width="24px" height="24px" viewBox="0 0 24 24" version="1.1" xmlns="http://www.w3.org/2000/svg" xmlns:xlink="http://www.w3.org/1999/xlink">
    <title>CEBE8CC0-4CB2-43BC-9416-665BA2A9156E@2.00x</title>
    <g id="Iconography" stroke="none" stroke-width="1" fill="none" fill-rule="evenodd">
        <g transform="translate(-64.000000, -624.000000)" id="Group">
            <g transform="translate(64.000000, 624.000000)">
                <path d="M24,12 C24,18.6288871 18.6269516,24 12,24 C5.37304839,24 0,18.6288871 0,12 C0,5.37498387 5.37304839,0 12,0 C18.6269516,0 24,5.37498387 24,12 Z" id="Path" fill="#DC4A56"></path>
                <path d="M12.0049751,18 C12.8312143,18 13.5,18.6721296 13.5,19.5 C13.5,20.2151505 12.998642,20.8218716 12.2917158,20.9693026 L12.1476773,20.9925609 L11.9950249,21 C11.1687857,21 10.5,20.3278704 10.5,19.5 C10.5,18.7848495 11.001358,18.1781284 11.7082842,18.0306974 L11.8523227,18.0074391 L12.0049751,18 Z M12,3 C12.7300347,3 13.5,3.65636945 13.5,4.49824561 C13.5,4.96475146 13.5,8.29925439 13.5,14.5017544 C13.5,15.3193732 12.8402087,16 12,16 C11.2699653,16 10.6681504,15.4831391 10.5281618,14.7802697 L10.5074074,14.6463827 L10.5,14.5017544 L10.5,4.49824561 C10.5,3.68062681 11.1597913,3 12,3 Z" id="Shape" fill="#FFFFFF"></path>
            </g>
        </g>
    </g>
</svg>

<svg width="24" height="24" xmlns="http://www.w3.org/2000/svg"><g fill="none" fill-rule="evenodd"><path d="M24 12c0 6.629-5.373 12-12 12S0 18.629 0 12C0 5.375 5.373 0 12 0s12 5.375 12 12z" fill="#DC4A56"/><path d="M12.005 18a1.498 1.498 0 01.287 2.97l-.144.023-.153.007a1.498 1.498 0 01-.287-2.97l.144-.023.153-.007zM12 3c.73 0 1.5.656 1.5 1.498v10.004a1.498 1.498 0 01-2.972.278l-.02-.134-.008-.144V4.498C10.5 3.681 11.16 3 12 3z"/></g></svg>
